X: 1467
T: Dandy Denny Cronin
R: reel
B: O'Neill's 1850 #1467
O: Beamish
Z: Bob Safranek, rjs@gsp.org
Z: All Ornaments (~) are mordents.
Z: Compacted via repeats (but multiple endings don't work here) [JC]
M: C|
L: 1/8
K: A
[| e2AA e2ef | gefd e2(ef)  |  e2AA e2ef | gefd (~BA)A2 || e2AA e2ef | gfgd   e2(dB) |
|  d2ef g2a2 | gefd (~BA)A2 |: a2ef g2a2 | gefd e2(dB)  |  d2ef g2a2 | gefd (~BA)A2 :|
